X:1
T:James Gibb editions
T:Hodie Christus natus est - Cima
T:#
%%score [ 1 2 3 4 ]
L:1/8
Q:1/4=100
M:2/2
K:Ab
V:1 treble nm="Soprano" snm="S"
V:2 treble nm="Alto" snm="A"
V:3 treble-8 nm="Tenor" snm="T"
V:4 bass nm="Bass" snm="B"
V:1
"^Giovanni Paolo Cima\n(1570-1610)""^Hodie Christus natus est" z8 | z8 | z8 | f6 f2 | c4 f4- | %5
w: |||Ho- di-|e Chri\-|
 f2 e2 d2 d2 | c8 | d6 d2 |[M:2/2] c4 B4- | B4 _A4 | d6 d2 | c4 B4- | B2 c2 d2 e2 | f4 z2 c2- | %14
w: * stus na- tus|est,|ho- di-|e Chri\-|* stus|na- tus|est, Chri\-|* stus na- tus|est: Ho\-|
 c2 c2 =d2 d2 | e4 e2 f2 | _d4 c4 | c4 c4- | c2 =d2 e2 B2 | c4 c2 _d2 | B4 =A4 | B8 | z8 | z8 | %24
w: * di- e Sal-|va- tor ap-|pa- ru-|it, ho\-|* di- e Sal-|va- tor ap-|pa- ru-|it:|||
 z8 | z8 | f6 f2 | f4 F4 | E8 | E4 A4- | A4 A4 | B4 c4 | d4 A2 A2 | B4 c4 | d4 z2 d2 | c4 c2 c2 | %36
w: ||Ho- di-|e in|ter-|ra ca\-|* nunt|an- ge-|li, ca- nunt|an- ge-|li, lae-|tan- tur, lae-|
 B4 =A4 | z2 B2 _A4 | A2 B2 _G4 | F4 F4 | (F2 =G2 A2 B2 | c2 A2 d4- | d4) c4 | d8 | z8 | z8 | z8 | %47
w: tan- tur,|lae- tan-|tur, lae- tan-|tur Arch-|an\- * * *||* ge-|li.||||
 z8 | z8 | f6 f2 | f4 e4 | d2 c2 B4 | c2 e2 =d4 | e8 | c6 c2 | c4 B4 | A2 G2 F4 | G2 B2 =A4 | B8 || %59
w: ||ho- di-|e e-|xul- tant jus-|ti di- cen-|tes,|ho- di-|e e-|xul- tant jus-|ti di- cen-|tes:|
[M:3/2][Q:1/4=180] B6 B2 B4 | =d6 d2 d4 | e6 =d2 c4 | B4 B8 | B12 | c6 c2 c4 | e6 e2 e4 | %66
w: Glo- ri- a,|glo- ri- a|in ex- cel-|sis De-|o.|Glo- ri- a,|glo- ri- a|
 f6 e2 d4 |[M:3/2][Q:1/4=180][Q:1/4=180][Q:1/4=180][Q:1/4=180] d4 c8 | d12 | f6 f2 f4 | e6 e2 e4 | %71
w: in ex- cel-|sis De-|o.|Glo- ri- a,|glo- ri- a|
 e6 d2 c4 | B4 =A8 ||[M:2/2][Q:1/4=120] B8 | z4 B2 c2 | =d4 e4- | %76
w: in ex- cel-|sis De-|o.|al- le-|lu- ia,|
[M:2/2][Q:1/4=120][Q:1/4=120][Q:1/4=120][Q:1/4=120] e4 E2 F2 | G4 A4 | A2 B2 c4 | d8 | z4 d2 e2 | %81
w: * al- le-|lu- ia,|al- le- lu-|ia,|al- le-|
 f4 e4 | d2 c2 B4 | c8 | z4 A2 B2 | c4 d4 | c2 e2 =d4 | e8 | z4 E2 F2 | G4 A4 | %90
w: lu- ia,|al- le- lu-|ia,|al- le-|lu- ia,|al- le- lu-|ia,|al- le-|lu- ia,|
[Q:1/4=119] B2[Q:1/4=118] c2[Q:1/4=116] d4 |[Q:1/4=114] c4[Q:1/4=112] B2[Q:1/4=111] B2 | %92
w: al- le- lu-|ia, al- le-|
[Q:1/4=110] (=A2[Q:1/4=108] G2[Q:1/4=107] A4) |[Q:1/4=106] B16 |] %94
w: lu\- * *|ia.|
V:2
 B6 B2 | F4 B4- | B2 A2 _G2 G2 | F8 | F6 =G2 | =A4 B4- | B4 =A4 | B4 B,4 |[M:2/2] F8 | (E4 F2) E2 | %10
w: Ho- di-|e Chri\-|* stus na- tus|est,|ho- di-|e Chri\-|* stus|na- tus|est,|ho\- * di-|
 F4 =G4 | A4 _G4 | F4 B2 B2 | =A4 A4- | A2 !courtesy!=A2 B2 F2 | =G4 A2 A2 | B4 G4 | =A4 A4- | %18
w: e Sal-|va- tor|ap- pa- ru-|it, ho\-|* di- e Sal-|va- tor ap-|pa- ru-|it, ho\-|
 A2 B2 G2 G2 | _A4 A2 A2 | _G4 F4 | F8 | _D6 D2 | D6 _G,2 | A,8 | A,4 A4- | A2 A2 A4 | F4 (D4- | %28
w: * di- e Sal-|va- tor ap-|pa- ru-|it:|Ho- di-|e ~in|ter-|ra, ho\-|* di- e|in ter\-|
 D4 C2 B,2 | C8) | D4 F2 F2 | _G4 E4 | F8 | z8 | z4 F4 | E4 E2 F2 | D4 C4 | D4 F4 | F2 F2 E4 | D8 | %40
w: ||ra ca- nunt|an- ge-|li,||lae-|tan- tur, lae-|tan- tur,|lae- tan-|tur, lae- tan-|tur.|
 z8 | z8 | A6 A2 | F8 | A6 A2 | F6 F2 | D2 B,2 F4 | E2 D2 E4 | F4 z4 | A6 A2 | A4 A4 | F2 A2 =G4 | %52
w: ||Ho- di-|e,|ho- di-|e e-|xul- tant jus-|ti di- cen-|tes,|ho- di-|e e-|xul- tant jus-|
 A2 B2 B4 | =G8 | A6 A2 | A4 G4 | F2 E2 =D4 | E2 G2 F4 | F8 ||[M:3/2] F6 F2 F4 | B6 B2 B4 | %61
w: ti di- cen-|tes,|ho- di-|e e-|xul- tant jus-|ti di- cen-|tes:|Glo- ri- a,|glo- ri- a|
 G4 G4 A4 | G4 F8 | G12 | A6 A2 A4 | A6 A2 A4 | A4 A4 F4 |[M:3/2] B4 A8 | A12 | A6 A2 A4 | %70
w: in ex- cel-|sis De-|o.|Glo- ri- a,|glo- ri- a|in ex- cel-|sis De-|o.|Glo- ri- a,|
 A6 A2 A4 | G4 G4 A4 | F4 F8 ||[M:2/2] F4 =D2 E2 | F4 G4 | F2 F2 G F G A |[M:2/2] B4 A4 | %77
w: glo- ri- a|in ex- cel-|sis De-|o. Al- le-|lu- ia,|al- le- lu\- * * *|* ia,|
 z4 z2 F2- | F2 F2 E4 | F4 F2 _G2 | A4 B4 | A6 =G2 | (FG A4 G2) | A8- | A8 | z8 | z8 | z4 =G2 A2 | %88
w: al\-|* le- lu-|ia, al- le-|lu- ia,|al- le-|lu\- * * *|ia,||||al- le-|
 B4 A4 | z8 | F2 A2 A4 | A4 F2 _G2 | F8 | F16 |] %94
w: lu- ia,||al- le- lu-|ia, al- le-|lu-|ia.|
V:3
 z8 | z8 | z8 | z8 | z8 | z8 | f6 f2 | B4 f4- |[M:2/2][K:treble-8] f2 e2 d2 d2 | c8 | z8 | z4 d4- | %12
w: ||||||Ho- di-|e Chri\-|* stus na- tus|est,||Chri\-|
 d2 c2 B2 B2 | c4 f4- | f2 f2 f2 f2 | e4 c2 c2 | (d2 f4) =e2 | f4 z2 f2- | f2 f2 e2 e2 | e4 e2 f2 | %20
w: * stus na- tus|est: Ho\-|* di- e Sal-|va- tor ap-|pa\- * ru-|it, ho\-|* di- e Sal-|va- tor ap-|
 e4 c4 | =d4 f4- | f2 f2 f4- | f4 !courtesy!_d4 | c8 | c8 | d6 d2 | d4 A4 | A8 | A8- | A8 | z8 | %32
w: pa- ru-|it: Ho\-|* di- e|* in|ter-|ra,|ho- di-|e in|ter-|ra|||
 z4 f2 f2 | _g4 e4 | f4 z2 d2 | A4 A2 A2 | B4 F4 | z2 B2 d4 | d2 d2 B4 | B4 (d4- | d2 e2 f4) | %41
w: ca- nunt|an- ge-|li, lae-|tan- tur, lae-|tan- tur,|lae- tan-|tur, lae- tan-|tur Arch\-||
 (e4 d4 | e6) e2 | d4 f4- | f2 f2 c4 | d4 c2 A2 | B4 c2 d2 | (c2 d4 c2) | d4 d4- | d4 d4 | d4 c4 | %51
w: an\- *|* ge-|li. Ho\-|* di- e|e- xul- tant|jus- ti di-|cen\- * *|tes, ho\-|* di-|e e-|
 d2 e2 e4 | e2 _g2 f4 | e4 e4- | e4 e4 | e6 e2 | c2 B2 B4 | B2 e2 c4 | =d8 || %59
w: xul- tant jus-|ti di- cen-|tes, ho\-|* di-|e e-|xul- tant jus-|ti di- cen-|tes:|
[M:3/2][K:treble-8] =d6 d2 d4 | f6 f2 f4 | e4 B4 c4 | e4 =d8 | e12 | e6 e2 e4 | c6 c2 c4 | %66
w: Glo- ri- a,|glo- ri- a|in ex- cel-|sis De-|o.|Glo- ri- a,|glo- ri- a|
 d4 c4 d4 |[M:3/2][K:treble-8] _g4 e8 | f12 | d6 d2 d4 | c6 c2 c4 | B4 e4 e4 | d4 c8 || %73
w: in ex- cel-|sis De-|o.|Glo- ri- a,|glo- ri- a|in ex- cel-|sis De-|
[M:2/2] B4 B2 c2 | =d4 e4 | B8- |[M:2/2][K:treble-8] B4 c4 | B4 A4 | z8 | z4 d2 e2 | f4 _g4 | %81
w: o. Al- le-|lu- ia,|al\-|* le-|lu- ia,||al- le-|lu- ia,|
 d4 c4 | (d2 A2 e4) | A4 c2 d2 | e4 f4 | e4 d4 | (e f _g e f4) | e8 | B2 B2 c4 | B4 A2 c2 | %90
w: al- le-|lu\- * *|ia, al- le-|lu- ia,|al- le-|lu\- * * * *|ia,|al- le- lu-|ia, al- le-|
 (d2 e2 f4) | e4 d2 e2 | c8 | =d16 |] %94
w: lu\- * *|ia, al- le-|lu-|ia.|
V:4
 z8 | z8 | z8 | z8 | z8 | z8 | z8 | z8 |[M:2/2] z8 | z8 | B,6 B,2 | F,4 B,4- | B,2 A,2 _G,2 G,2 | %13
w: ||||||||||Ho- di-|e Chri\-|* stus na- tus|
 F,4 F,4- | F,2 F,2 B,2 B,2 | E,4 A,2 F,2 | B,4 C4 | F,4 F,4- | F,2 B,2 E,2 E,2 | A,4 A,2 D,2 | %20
w: est: Ho\-|* di- e Sal-|va- tor ap-|pa- ru-|it, ho\-|* di- e Sal-|va- tor ap-|
 E,4 F,4 | B,,8 | B,6 B,2 | B,4 B,,4 | F,8 | F,8 | D,6 D,2 | D,4 D,4 | A,,8 | A,,8 | D,6 D,2 | %31
w: pa- ru-|it:|Ho- di-|e in|ter-|ra,|ho- di-|e in|ter-|ra|ca- nunt|
 _G,4 A,4 | D,4 D,2 D,2 | _G,4 A,4 | D,8 | z8 | z8 | z2 _G,2 D,4 | D,2 D,2 E,4 | B,,8 | D,8 | %41
w: an- ge-|li, ca- nunt|an- ge-|li,|||lae- tan-|tur, lae- tan-|tur|Arch-|
 A,4 B,4 | A,8 | z4 D4- | D2 D2 A,4 | B,4 A,2 F,2 | _G,4 F,2 D,2 | A,8 | D,4 z4 | D,6 D,2 | %50
w: an- ge-|li.|Ho\-|* di- e|e- xul- tant|jus- ti di-|cen-|tes,|ho- di-|
 D,4 A,4 | B,2 A,2 E,4 | A,2 E,2 B,4 | E,8 | A,6 A,2 | A,4 E,4 | A,2 E,2 B,4 | E,2 E,2 F,4 | %58
w: e e-|xul- tant jus-|ti di- cen-|tes:|ho- di-|e e-|xul- tant jus-|ti di- cen-|
 B,,8 ||[M:3/2] B,6 B,2 B,4 | B,6 B,2 B,4 | E,4 E,4 A,4 | E,4 B,8 | E,12 | A,6 A,2 A,4 | %65
w: tes:|Glo- ri- a,|glo- ri- a|in ex- cel-|sis De-|o.|Glo- ri- a,|
 A,6 A,2 A,4 | D4 A,4 B,4 |[M:3/2] _G,4 A,8 | D,12 | D,6 D,2 D,4 | A,6 A,2 A,4 | E,4 E,4 A,4 | %72
w: glo- ri- a|in ex- cel-|sis De-|o.|Glo- ri- a,|glo- ri- a|in ex- cel-|
 B,4 F,8 ||[M:2/2] B,,8 | z8 | z4 E,2 F,2 |[M:2/2] G,4 A,4 | E,2 E,2 (F,4- | F,2 D,2 A,4) | D,8 | %80
w: sis De-|o.||al- le-|lu- ia,|al- le- lu\-||ia,|
 z8 | z8 | z8 | z4 A,2 B,2 | C4 D4 | A,4 B,4 | (A,2 E,2 B,4) | E,4 E,2 F,2 | G,4 A,4 | E,4 F,4 | %90
w: |||al- le-|lu- ia,|al- le-|lu\- * *|ia, al- le-|lu- ia,|al- le-|
 (B,2 A,2 D,4) | A,4 B,2 E,2 | F,8 | B,,16 |] %94
w: lu\- * *|ia, al- le-|lu-|ia.|

